X: 4104
T: MARQUIS OF LORN
R: Strathspey.
%R: strathspey
B: James Kerr "Merry Melodies" v.4 p.13 #104
Z: 2016 John Chambers <jc:trillian.mit.edu>
M: C
L: 1/16
K: G
(Bc) |\
d3GB3g d3GB4 | (cde2) d3B cA3 A2(Bc) |\
d3GB3g d3GB4 | (cde2) A3d BG3 G2 :|
|:\
f2 |\
g4 d3g (efg2) d3B | (cde2) d3B cA3 A3f |\
g4 d3g (efg2) d3B | (cde2) A3d BG3 G2 :|

%%sep 1 1 500
%%sep 1 1 500

